X: 59
T:Da Brigg
% Nottingham Music Database
S:Mrs Foxley's Fancy, via EF
M:6/8
K:D
P:A
(3A/2B/2c/2|:"D"d3 "A7"A2G|"D"FED "A7"DFA|"D"d3 A2F|"Em"E2e "A7"cBc|
"D"d3 "A7"A2G|"D"FED DEF|"Em"E2F G2A|"Em"B3 "A7"ABc:|
P:B
"D"d2e f2d|"A7"c2d ecA|"D"d2e "D7/c"f2d|"G/b"g3 "A7"f2g|
"D"a2f "A/c+"g2e| "Bm"f2d "A7"e2c|"D"d2A F2A|"Em"B3 "A7"ABc:|<end>
<start>
